docs/static/images/users/uniqlo.svg

<svg width="80" height="80" xmlns="http://www.w3.org/2000/svg">
  <path d="M0 80h79.974V.033H0V80z" fill="#ed1d24"/>
  <path d="M58.877 10.942h5.121v25.262h-5.121V10.942zM26.876 27.81c0 4.739-3.605 8.395-8.32 8.395-4.705 0-8.399-3.656-8.399-8.395V10.943h4.995V27.81c0 1.916 1.518 3.46 3.404 3.46 1.895 0 3.401-1.544 3.401-3.46V10.943h4.919V27.81zM50.535 69.109H33.707V43.857h5.101v20.117h11.727v5.135zM50.535 36.202h-5.114l-6.613-14.473v14.473h-5.101V10.94h5.101l6.613 14.451V10.94h5.114v25.262zM18.551 43.858c-4.699 0-8.395 3.775-8.395 8.344v8.564c0 4.51 3.696 8.344 8.395 8.344.569 0 1.122-.06 1.65-.157l1.754 5.271h4.919l-2.329-7.588c1.364-1.562 2.329-3.689 2.329-5.87v-8.564c0-4.569-3.605-8.344-8.323-8.344m3.404 16.908c0 1.661-1.506 3.208-3.404 3.208-1.883 0-3.4-1.547-3.4-3.208v-8.564a3.393 3.393 0 013.4-3.403 3.387 3.387 0 013.404 3.403v8.564zM61.429 43.858c-4.712 0-8.326 3.775-8.326 8.344v8.564c0 4.51 3.614 8.344 8.326 8.344 4.702 0 8.323-3.834 8.323-8.344v-8.564c0-4.569-3.621-8.344-8.323-8.344m3.413 16.908c0 1.661-1.54 3.208-3.413 3.208-1.883 0-3.414-1.547-3.414-3.208v-8.564a3.405 3.405 0 013.414-3.403 3.41 3.41 0 013.413 3.403v8.564z" fill="#fff"/>
</svg>

<?xml version="1.0" encoding="UTF-8"?>
<svg width="80px" height="80px" viewBox="0 0 80 80" xmlns="http://www.w3.org/2000/svg" xmlns:xlink="http://www.w3.org/1999/xlink" version="1.1">
 <!-- Generated by Pixelmator Pro 1.4.1 -->
 <path id="path" d="M0 80 L79.974 80 79.974 0.033 0 0.033 0 80 Z" fill="#ed1d24" fill-opacity="1" stroke="none"/>
 <path id="path-1" d="M58.877 10.942 L63.998 10.942 63.998 36.204 58.877 36.204 58.877 10.942 Z" fill="#ffffff" fill-opacity="1" stroke="none"/>
 <path id="path-2" d="M26.876 27.81 C26.876 32.549 23.271 36.205 18.556 36.205 13.851 36.205 10.157 32.549 10.157 27.81 L10.157 10.943 15.152 10.943 15.152 27.81 C15.152 29.726 16.67 31.27 18.556 31.27 20.451 31.27 21.957 29.726 21.957 27.81 L21.957 10.943 26.876 10.943 26.876 27.81 Z" fill="#ffffff" fill-opacity="1" stroke="none"/>
 <path id="path-3" d="M50.535 69.109 L33.707 69.109 33.707 43.857 38.808 43.857 38.808 63.974 50.535 63.974 50.535 69.109 Z" fill="#ffffff" fill-opacity="1" stroke="none"/>
 <path id="path-4" d="M50.535 36.202 L45.421 36.202 38.808 21.729 38.808 36.202 33.707 36.202 33.707 10.94 38.808 10.94 45.421 25.391 45.421 10.94 50.535 10.94 50.535 36.202 Z" fill="#ffffff" fill-opacity="1" stroke="none"/>
 <path id="path-5" d="M18.551 43.858 C13.852 43.858 10.156 47.633 10.156 52.202 L10.156 60.766 C10.156 65.276 13.852 69.11 18.551 69.11 19.12 69.11 19.673 69.05 20.201 68.953 L21.955 74.224 26.874 74.224 24.545 66.636 C25.909 65.074 26.874 62.947 26.874 60.766 L26.874 52.202 C26.874 47.633 23.269 43.858 18.551 43.858 M21.955 60.766 C21.955 62.427 20.449 63.974 18.551 63.974 16.668 63.974 15.151 62.427 15.151 60.766 L15.151 52.202 C15.151 50.314 16.668 48.799 18.551 48.799 20.449 48.799 21.955 50.314 21.955 52.202 L21.955 60.766 Z" fill="#ffffff" fill-opacity="1" stroke="none"/>
 <path id="path-6" d="M61.429 43.858 C56.717 43.858 53.103 47.633 53.103 52.202 L53.103 60.766 C53.103 65.276 56.717 69.11 61.429 69.11 66.131 69.11 69.752 65.276 69.752 60.766 L69.752 52.202 C69.752 47.633 66.131 43.858 61.429 43.858 M64.842 60.766 C64.842 62.427 63.302 63.974 61.429 63.974 59.546 63.974 58.015 62.427 58.015 60.766 L58.015 52.202 C58.015 50.314 59.546 48.799 61.429 48.799 63.302 48.799 64.842 50.314 64.842 52.202 L64.842 60.766 Z" fill="#ffffff" fill-opacity="1" stroke="none"/>
</svg>
